icons/arrow-doublehead-v.svg

<svg width="24" height="24" viewBox="0 0 24 24" fill="none" xmlns="http://www.w3.org/2000/svg">
<path fill-rule="evenodd" clip-rule="evenodd" d="M12 3.79993C12.4142 3.79993 12.75 4.13571 12.75 4.54993L12.75 19.4499C12.75 19.8641 12.4142 20.1999 12 20.1999C11.5858 20.1999 11.25 19.8641 11.25 19.4499L11.25 4.54993C11.25 4.13571 11.5858 3.79993 12 3.79993Z" fill="black"/>
<path fill-rule="evenodd" clip-rule="evenodd" d="M16.8303 8.9803C16.5374 9.27319 16.0625 9.27319 15.7696 8.9803L12.116 5.32668C12.0495 5.28526 11.994 5.27497 11.9624 5.27497C11.9444 5.27497 11.935 5.27809 11.9323 5.27915C11.9315 5.27945 11.9311 5.27966 11.9308 5.2798L8.23728 9.07318C7.94832 9.36996 7.47349 9.37629 7.17671 9.08732C6.87994 8.79836 6.87361 8.32353 7.16257 8.02676L10.8695 4.21959C11.4971 3.59204 12.4295 3.68463 13.0499 4.14997L13.0926 4.18195L16.8303 7.91964C17.1231 8.21253 17.1231 8.68741 16.8303 8.9803Z" fill="black"/>
<path fill-rule="evenodd" clip-rule="evenodd" d="M16.7303 15.0196C17.0232 15.3125 17.0232 15.7874 16.7303 16.0803L13.0303 19.7803C12.4374 20.3731 11.4625 20.3731 10.8696 19.7803L7.16962 16.0803C6.87673 15.7874 6.87673 15.3125 7.16962 15.0196C7.46251 14.7267 7.93739 14.7267 8.23028 15.0196L11.9303 18.7196C11.9305 18.7198 11.9356 18.7249 11.95 18.7249C11.9643 18.7249 11.9694 18.7198 11.9696 18.7196L15.6696 15.0196C15.9625 14.7267 16.4374 14.7267 16.7303 15.0196Z" fill="black"/>
</svg>

<svg xmlns="http://www.w3.org/2000/svg" fill="none" viewBox="0 0 24 24">
  <path fill="#000" fill-rule="evenodd" d="M12 3.8a.75.75 0 0 1 .75.75v14.9a.75.75 0 0 1-1.5 0V4.55A.75.75 0 0 1 12 3.8Z" clip-rule="evenodd"/>
  <path fill="#000" fill-rule="evenodd" d="M16.83 8.98a.75.75 0 0 1-1.06 0l-3.654-3.653a.303.303 0 0 0-.154-.052.085.085 0 0 0-.03.004h-.001L8.237 9.074a.75.75 0 1 1-1.074-1.046L10.87 4.22c.627-.628 1.56-.535 2.18-.07l.043.032L16.83 7.92a.75.75 0 0 1 0 1.06Zm-.1 6.04a.75.75 0 0 1 0 1.06l-3.7 3.7a1.535 1.535 0 0 1-2.16 0l-3.7-3.7a.75.75 0 0 1 1.06-1.06l3.7 3.7s.006.005.02.005.02-.005.02-.005l3.7-3.7a.75.75 0 0 1 1.06 0Z" clip-rule="evenodd"/>
</svg>
